X:1
T:Minuet. SenH.135, A
T:Minuet. SenH.135, A
T:in Hand C
C:in Hand C
L:1/8
Q:1/4=100
M:3/4
K:C
V:1 treble 
V:1
 c4 d2 | ed c2 g2 | c2 f2 e2 | d4 g2 | ecegec | dBdfdB | ecegec | dBdfdB | G2 c2 B2 | c6 || %10
 a2 c'2 b2 | c'4 b2 | abc'bag | f2 ef d2 | bgbd'bg | a^fac'af | bgbd'bg | a^fac'af | d2 g2 f2 | %19
 g6 | g2 c'2 b2 | c'gc'gc'g | e2 d'2 c'2 | d'ad'ad'a | e2 c'2 b2 | c'bagfe | G2 d2 c2 | c6 |] %28

